X:981
T:Charles O'Conor
R:Jig
O:Ireland
C:Turlough Carolan
B:The Complete Works of O'Carolan
S:The Complete Works of O'Carolan
Z:Transcription, Slight rearrangement, chords:Mike Long
M:6/8
L:1/8
K:C
"C"c2G c2G|"F"AGF "C"EGG|"F"A/B/cc "G"dBG|\
"C"cgg "G"g2f|"C"ec/d/e "F"AcA|
"G"d/c/B/c/d GBG|"F/C"cBA "G"GEG|"C"c3 c3:|\
|:"C"G2 C E/F/GE|"F"AF/G/A "C"GE/F/G|
"C"C2G E/F/GC|"Dm"FDd "G"~B2G|\
"Am"e2e ege|ege ecA|"G"B/c/dd dgd|
dgd dBG|"C"cBA "G"GED|"Em"EGG "Am"e2d|\
"F"c<BA "G"GEG|"C"c3 c3:|
